X:125
T: Reel of Tralishane
M: 4/4
L: 1/8
S: B.Flaherty
Z: B.Black
R: reel
K: D
d2 fe dcBc | A2 FB ADFA | d2 fe dcBc | AFDE FE E2 |
d2 fe dcBc | A2 FB ADFA | d2 fe dcBc | BGAG FD D2 :|
d2-dA BAFA | defd Be e2 | d2 dA BcdB | AFGE FDFA |
d2-dA BAFA | defd Be e2 | d2 dB Agfe | dBAG FD D2 :|
